X: 1601
T: The Last of the Twins
M:C|
L:1/8
R:Hornpipe
B:O'Neill's 1601
N:"Collected by F.O'Neill."
Z:Transcribed by Michael D. Long, 10/02/98
K:A
(3(efg)|a>ec>e f>ec>B|A>ce>a f>ec>A|G>AB>c d>ef>e|d>cB>A B2 (3(efg)|
a>ec>e f>ec>B|A>ce>a f>ec>A|G>AB>c d>ef>g|a2 A2 A2:|\
|:(3(efg)|a>ga>b a>gf>e|f>ef>g f>ec>A|
G>AB>c d>ef>e|d>cB>A G2 (3(efg)|a>ga>b a>gf>e|f>ef>g f>ec>A|\
G>AB>c d>ef>g|a2 a>g a2:|


